static/media/email.e3e1c241.svg

<?xml version="1.0" encoding="UTF-8"?>
<svg xmlns="http://www.w3.org/2000/svg" xmlns:xlink="http://www.w3.org/1999/xlink" width="21px" height="16px" version="1.1" viewBox="0 0 21 16">
<!--Generator: Sketch 52.6 (67491) - http://www.bohemiancoding.com/sketch-->
    <title>
        Email icon
    </title>
    <desc>
        Created with Sketch.
    </desc>
    <g id="履歷" fill="none" fill-rule="evenodd" stroke="none" stroke-width="1">
        <g id="cdsa01" fill="#FFFFFF" transform="translate(-610.000000, -480.000000)">
            <g id="中" transform="translate(564.000000, 169.000000)">
                <g id="Group-5" transform="translate(46.000000, 271.000000)">
                    <g id="Email-icon" transform="translate(0.000000, 40.000000)">
                        <path id="Shape" fill-rule="nonzero" d="M18.4097107,0.0325203252 L2.5642562,0.0325203252 C1.14979339,0.0325203252 0,1.18157182 0,2.59512195 L0,13.4178862 C0,14.8314363 1.14979339,15.9804878 2.5642562,15.9804878 L18.4053719,15.9804878 C19.8198347,15.9804878 20.9696281,14.8314363 20.9696281,13.4178862 L20.9696281,2.59945799 C20.9739669,1.18590786 19.8241736,0.0325203252 18.4097107,0.0325203252 Z M19.8024793,13.4178862 C19.8024793,14.1853659 19.177686,14.8097561 18.4097107,14.8097561 L2.5642562,14.8097561 C1.79628099,14.8097561 1.1714876,14.1853659 1.1714876,13.4178862 L1.1714876,2.59945799 C1.1714876,1.83197832 1.79628099,1.20758808 2.5642562,1.20758808 L18.4053719,1.20758808 C19.1733471,1.20758808 19.7981405,1.83197832 19.7981405,2.59945799 L19.7981405,13.4178862 L19.8024793,13.4178862 Z"/>
                        <path id="Path" d="M13.2247934,7.87208672 L18.3533058,3.27588076 C18.5919421,3.05907859 18.6136364,2.69051491 18.3966942,2.44769648 C18.1797521,2.20921409 17.8109504,2.18753388 17.5679752,2.40433604 L10.4956612,8.74796748 L9.11590909,7.51653117 C9.11157025,7.51219512 9.1072314,7.50785908 9.1072314,7.50352304 C9.0768595,7.47317073 9.0464876,7.44715447 9.01177686,7.42113821 L3.39731405,2.4 C3.15433884,2.18319783 2.78553719,2.20487805 2.56859504,2.44769648 C2.35165289,2.69051491 2.37334711,3.05907859 2.61632231,3.27588076 L7.80557851,7.91111111 L2.63801653,12.7457995 C2.40371901,12.9669377 2.39070248,13.3355014 2.61198347,13.5739837 C2.72913223,13.695393 2.88533058,13.7604336 3.04152893,13.7604336 C3.18471074,13.7604336 3.32789256,13.7084011 3.44070248,13.604336 L8.68636364,8.700271 L10.1095041,9.97073171 C10.222314,10.0704607 10.361157,10.1181572 10.5,10.1181572 C10.638843,10.1181572 10.7820248,10.0661247 10.8904959,9.96639566 L12.352686,8.65691057 L17.5679752,13.6086721 C17.6807851,13.7170732 17.8283058,13.7691057 17.9714876,13.7691057 C18.127686,13.7691057 18.2795455,13.7084011 18.3966942,13.5869919 C18.6179752,13.3528455 18.6092975,12.9799458 18.375,12.7588076 L13.2247934,7.87208672 Z"/>
                    </g>
                </g>
            </g>
        </g>
    </g>
</svg>

<svg xmlns="http://www.w3.org/2000/svg" width="21" height="16"><g fill="#FFF" fill-rule="evenodd"><path fill-rule="nonzero" d="M18.41.033H2.564A2.566 2.566 0 0 0 0 2.595v10.823a2.566 2.566 0 0 0 2.564 2.562h15.841a2.566 2.566 0 0 0 2.565-2.562V2.599A2.563 2.563 0 0 0 18.41.033zm1.392 13.385c0 .767-.624 1.392-1.392 1.392H2.564a1.394 1.394 0 0 1-1.393-1.392V2.599c0-.767.625-1.391 1.393-1.391h15.841c.768 0 1.393.624 1.393 1.391v10.819h.004z"/><path d="M13.225 7.872l5.128-4.596a.588.588 0 0 0 .044-.828.589.589 0 0 0-.829-.044l-7.072 6.344-1.38-1.231c-.004-.005-.009-.01-.009-.013a.867.867 0 0 0-.095-.083L3.397 2.4a.585.585 0 0 0-.828.048.584.584 0 0 0 .047.828l5.19 4.635-5.168 4.835a.587.587 0 0 0 .803.858L8.686 8.7l1.424 1.27a.586.586 0 0 0 .78-.004l1.463-1.31 5.215 4.953a.585.585 0 0 0 .807-.85l-5.15-4.887z"/></g></svg>
